X: 4
T: The Sally Gardens
R: reel
M: 4/4
L: 1/8
K: Gmaj
BA |:G2 DG BAGB | de ~e2 dBAB | d2 B/c/d edge | dBAB GEDE |
~G3 A BAGB | dBeB dBAB | dG B/c/d edge |[1 dBAB G3 F :|[2 dBAB g3 ||
|: e |dggf g2 dg | g2 bg aged | eaag ageg | a2 bg ageg |
dggf g2 bg | ~g2 bg abge | d2 B/c/d edge |[1 dBAB g3 :|[2 dBAB G2 |]


Tune 98	Setting 29394

